src/assets/brand.svg

<svg width="132" height="24" viewBox="0 0 132 24" fill="none" xmlns="http://www.w3.org/2000/svg">
  <path
    fill-rule="evenodd"
    clip-rule="evenodd"
    d="M0.456632 12.0547C0.204442 12.0547 0 12.2604 0 12.5142C0 12.768 0.204441 12.9738 0.456632 12.9738H18.2653C18.5175 12.9738 18.7219 12.768 18.7219 12.5142C18.7219 12.2604 18.5175 12.0547 18.2653 12.0547L0.456632 12.0547Z"
    fill="white"
  />
  <path
    d="M18.3825 14.046C19.2216 14.046 19.9017 13.3602 19.9017 12.5142C19.9017 11.6682 19.2216 10.9824 18.3825 10.9824C17.5435 10.9824 16.8633 11.6682 16.8633 12.5142C16.8633 13.3602 17.5435 14.046 18.3825 14.046Z"
    fill="#FF2A57"
  />
  <path
    d="M12.9214 22.3186C10.1814 22.3168 7.55394 21.2192 5.61559 19.2666C3.67721 17.3139 2.58625 14.6658 2.58203 11.9031C2.58625 9.14035 3.67716 6.49206 5.61548 4.5392C7.55377 2.58636 10.1812 1.48845 12.9214 1.48633C15.6615 1.48845 18.2889 2.58636 20.2273 4.5392C22.1656 6.49206 23.2565 9.14035 23.2607 11.9031C23.2565 14.6658 22.1656 17.3139 20.2272 19.2666C18.2888 21.2192 15.6614 22.3168 12.9214 22.3186ZM12.9214 2.28824C10.392 2.29001 7.96671 3.30332 6.17746 5.10584C4.38824 6.90835 3.38123 9.35291 3.37737 11.9031C3.37983 14.4537 4.38644 16.8989 6.17605 18.7015C7.96562 20.5041 10.3918 21.5167 12.9214 21.5167C15.451 21.5167 17.8771 20.5041 19.6668 18.7015C21.4564 16.8989 22.4629 14.4537 22.4654 11.9031C22.4615 9.35291 21.4545 6.90835 19.6653 5.10584C17.876 3.30332 15.4507 2.29001 12.9214 2.28824Z"
    fill="white"
  />
  <path
    d="M14.2298 20.6697C11.9597 20.668 9.783 19.7584 8.1772 18.1406C6.5714 16.5228 5.66758 14.3288 5.66406 12.0399C5.66758 9.75105 6.5714 7.55707 8.1772 5.93919C9.783 4.32137 11.9597 3.4118 14.2298 3.41003C16.4999 3.4118 18.6766 4.32137 20.2824 5.93919C21.8883 7.55707 22.792 9.75105 22.7956 12.0399C22.792 14.3288 21.8883 16.5228 20.2824 18.1406C18.6766 19.7584 16.4999 20.668 14.2298 20.6697ZM14.2298 4.03285C12.1237 4.03462 10.1042 4.87862 8.61443 6.3797C7.12466 7.88079 6.28625 9.91637 6.28311 12.0399C6.28663 14.1632 7.12521 16.1985 8.61491 17.6992C10.1047 19.2001 12.1239 20.0438 14.2298 20.0456C16.3357 20.0438 18.355 19.2001 19.8447 17.6992C21.3344 16.1985 22.173 14.1632 22.1765 12.0399C22.173 9.91659 21.3344 7.88134 19.8447 6.38052C18.355 4.87976 16.3357 4.03596 14.2298 4.03419V4.03285Z"
    fill="white"
  />
  <path
    d="M15.5343 19.0238C13.7343 19.0224 12.0083 18.3011 10.735 17.0183C9.46164 15.7355 8.745 13.9957 8.74219 12.1808C8.745 10.3659 9.46164 8.62622 10.735 7.34336C12.0083 6.06056 13.7343 5.3393 15.5343 5.33789C17.3345 5.33895 19.0606 6.06007 20.3341 7.34298C21.6074 8.62589 22.324 10.3658 22.3264 12.1808C22.3236 13.9957 21.607 15.7355 20.3337 17.0183C19.0603 18.3011 17.3344 19.0224 15.5343 19.0238ZM15.5343 5.78293C13.8512 5.78402 12.2373 6.45825 11.0467 7.65771C9.85607 8.85716 9.18601 10.4838 9.18358 12.1808C9.18639 13.8776 9.85661 15.504 11.0472 16.7031C12.2378 17.9023 13.8515 18.5763 15.5343 18.5774C17.2172 18.5763 18.8309 17.9023 20.0215 16.7031C21.2121 15.504 21.8823 13.8776 21.8851 12.1808C21.8826 10.4838 21.2126 8.85716 20.022 7.65771C18.8313 6.45825 17.2174 5.78402 15.5343 5.78293Z"
    fill="white"
  />
  <path
    d="M16.8428 17.3751C15.5128 17.3741 14.2375 16.8412 13.2967 15.8933C12.3559 14.9455 11.8263 13.6601 11.8242 12.3191C11.826 10.9779 12.3554 9.69216 13.2962 8.74399C14.2371 7.79588 15.5126 7.26281 16.8428 7.26172C18.173 7.26281 19.4485 7.79588 20.3893 8.74399C21.3302 9.69216 21.8596 10.9779 21.8614 12.3191C21.8592 13.6601 21.3297 14.9455 20.3889 15.8933C19.4481 16.8412 18.1728 17.3741 16.8428 17.3751ZM16.8428 7.52905C15.5829 7.53008 14.3748 8.03501 13.4837 8.93299C12.5926 9.83103 12.0911 11.0488 12.0894 12.3191C12.0915 13.5892 12.5931 14.8066 13.4842 15.7043C14.3753 16.602 15.5831 17.1067 16.8428 17.1078C18.1025 17.1067 19.3103 16.602 20.2014 15.7043C21.0925 14.8066 21.5941 13.5892 21.5962 12.3191C21.5945 11.0488 21.0931 9.83103 20.2019 8.93299C19.3108 8.03501 18.1027 7.53008 16.8428 7.52905Z"
    fill="white"
  />
  <path
    d="M33.2695 1.63672H34.7518L35.6715 7.02581H35.7148L37.2187 1.63672H38.3223L39.7938 7.02581H39.8371L40.7567 1.63672H42.239L40.6702 9.27308H39.2961L37.7922 3.90581H37.7489L36.2125 9.27308H34.8384L33.2695 1.63672ZM46.6766 8.01854V2.89126L47.9209 1.63672H51.816L53.0602 2.89126V8.01854L51.816 9.27308H47.9209L46.6766 8.01854ZM51.0369 8.00763L51.5888 7.45126V3.45854L51.0369 2.90217H48.6999L48.1481 3.45854V7.45126L48.6999 8.00763H51.0369ZM63.9904 6.74217V9.27308H62.5189V7.08036L61.8697 6.34945H59.511V9.27308H58.0395V1.63672H62.7894L63.9471 2.8149V5.12763L63.2114 5.88035L63.9904 6.74217ZM59.511 5.12763H62.1186L62.4973 4.74581V3.26217L62.1186 2.88036H59.511V5.12763ZM69.0194 1.63672H70.3826L72.6331 6.56763H72.6548L74.9161 1.63672H76.2794V9.27308H74.862V4.62581H74.8403L73.0984 8.20399H72.1895L70.4584 4.62581H70.4367V9.27308H69.0194V1.63672ZM81.3619 1.63672H82.8334V4.83308H86.036V1.63672H87.5075V9.27308H86.036V6.09854H82.8334V9.27308H81.3619V1.63672ZM92.4872 8.01854V2.89126L93.7315 1.63672H97.6266L98.8708 2.89126V8.01854L97.6266 9.27308H93.7315L92.4872 8.01854ZM96.8475 8.00763L97.3994 7.45126V3.45854L96.8475 2.90217H94.5105L93.9587 3.45854V7.45126L94.5105 8.00763H96.8475ZM103.85 1.63672H105.322V8.01854H109.108V9.27308H103.85V1.63672ZM113.594 1.63672H119.068V2.89126H115.065V4.82217H118.755V6.0549H115.065V8.01854H119.068V9.27308H113.594V1.63672Z"
    fill="#F3F4FC"
  />
  <path
    d="M33.5391 21.1847V20.0938H34.9889V20.7375L35.3459 21.0975H37.5856L37.9535 20.7266V19.4611L37.5964 19.1011H34.7292L33.5607 17.9229V15.9047L34.7292 14.7266H38.1482L39.3168 15.9047V17.0066H37.8669V16.352L37.5099 15.992H35.3676L35.0105 16.352V17.4757L35.3676 17.8357H38.2348L39.4033 19.0138V21.1629L38.2132 22.3629H34.7076L33.5391 21.1847ZM44.161 21.1084V15.9811L45.4052 14.7266H49.1055L50.3282 15.9593V17.1266H48.8567V16.5047L48.3482 15.992H46.1842L45.6324 16.5484V20.5411L46.1842 21.0975H48.3482L48.8567 20.5847V19.9629H50.3282V21.1302L49.1055 22.3629H45.4052L44.161 21.1084ZM57.1054 14.7266H58.447L61.2169 22.3629H59.7238L59.107 20.672H56.4454L55.8287 22.3629H54.3356L57.1054 14.7266ZM58.7824 19.4502L57.7762 16.5484H57.7546L56.7808 19.4502H58.7824ZM65.6583 14.7266H66.9783L70.3541 19.9084H70.3757V14.7266H71.7931V22.3629H70.4731L67.0974 17.192H67.0757V22.3629H65.6583V14.7266Z"
    fill="#9295BB"
  />
</svg>

<svg
  xmlns="http://www.w3.org/2000/svg"
  width="132"
  height="24"
  fill="none"
  xmlns:v="https://vecta.io/nano"
>
  <path
    fill-rule="evenodd"
    d="M.457 12.055a.46.46 0 0 0-.457.46.46.46 0 0 0 .457.46h17.809a.46.46 0 0 0 .457-.46.46.46 0 0 0-.457-.46H.457z"
    fill="#fff"
  />
  <path
    d="M18.383 14.046c.839 0 1.519-.686 1.519-1.532s-.68-1.532-1.519-1.532-1.519.686-1.519 1.532.68 1.532 1.519 1.532z"
    fill="#ff2a57"
  />
  <g fill="#fff">
    <path
      d="M12.921 22.319c-2.74-.002-5.367-1.099-7.306-3.052s-3.029-4.601-3.034-7.363c.004-2.763 1.095-5.411 3.033-7.364s4.566-3.051 7.306-3.053 5.368 1.1 7.306 3.053 3.029 4.601 3.033 7.364c-.004 2.763-1.095 5.411-3.033 7.364s-4.566 3.05-7.306 3.052zm0-20.03a9.51 9.51 0 0 0-6.744 2.818 9.67 9.67 0 0 0-2.8 6.797c.002 2.551 1.009 4.996 2.799 6.798s4.216 2.815 6.745 2.815 4.956-1.013 6.745-2.815 2.796-4.248 2.799-6.798a9.67 9.67 0 0 0-2.8-6.797 9.51 9.51 0 0 0-6.744-2.818z"
    />
    <path
      d="M14.23 20.67c-2.27-.002-4.447-.911-6.053-2.529a8.68 8.68 0 0 1-2.513-6.101 8.68 8.68 0 0 1 2.513-6.101C9.783 4.321 11.96 3.412 14.23 3.41s4.447.911 6.053 2.529a8.68 8.68 0 0 1 2.513 6.101 8.68 8.68 0 0 1-2.513 6.101c-1.606 1.618-3.782 2.527-6.053 2.529zm0-16.637A7.92 7.92 0 0 0 8.614 6.38c-1.49 1.501-2.328 3.537-2.331 5.66.004 2.123.842 4.159 2.332 5.659a7.92 7.92 0 0 0 5.615 2.346 7.92 7.92 0 0 0 5.615-2.346c1.49-1.501 2.328-3.536 2.332-5.659-.004-2.123-.842-4.159-2.332-5.659a7.92 7.92 0 0 0-5.615-2.346v-.001z"
    />
    <path
      d="M15.534 19.024a6.77 6.77 0 0 1-4.799-2.006c-1.273-1.283-1.99-3.023-1.993-4.837.003-1.815.719-3.555 1.993-4.837a6.77 6.77 0 0 1 4.799-2.005 6.77 6.77 0 0 1 4.8 2.005 6.88 6.88 0 0 1 1.992 4.838c-.003 1.815-.719 3.555-1.993 4.838a6.77 6.77 0 0 1-4.799 2.006zm0-13.241a6.33 6.33 0 0 0-4.488 1.875c-1.191 1.199-1.861 2.826-1.863 4.523.003 1.697.673 3.323 1.864 4.522a6.33 6.33 0 0 0 4.487 1.874 6.33 6.33 0 0 0 4.487-1.874c1.191-1.199 1.861-2.825 1.864-4.522-.003-1.697-.673-3.324-1.863-4.523a6.33 6.33 0 0 0-4.488-1.875z"
    />
    <path
      d="M16.843 17.375a5 5 0 0 1-3.546-1.482c-.941-.948-1.47-2.233-1.473-3.574s.531-2.627 1.472-3.575 2.216-1.481 3.547-1.482a5 5 0 0 1 3.546 1.482c.941.948 1.47 2.234 1.472 3.575s-.532 2.626-1.473 3.574a5 5 0 0 1-3.546 1.482zm0-9.846c-1.26.001-2.468.506-3.359 1.404s-1.393 2.116-1.394 3.386.504 2.487 1.395 3.385a4.74 4.74 0 0 0 6.717 0c.891-.898 1.393-2.115 1.395-3.385s-.503-2.488-1.394-3.386-2.099-1.403-3.359-1.404z"
    />
  </g>
  <path
    d="M33.27 1.637h1.482l.92 5.389h.043l1.504-5.389h1.104l1.471 5.389h.043l.92-5.389h1.482L40.67 9.273h-1.374l-1.504-5.367h-.043l-1.536 5.367h-1.374L33.27 1.637zm13.407 6.382V2.891l1.244-1.255h3.895l1.244 1.255v5.127l-1.244 1.255h-3.895l-1.244-1.255zm4.36-.011l.552-.556V3.459l-.552-.556H48.7l-.552.556v3.993l.552.556h2.337zM63.99 6.742v2.531h-1.471V7.08l-.649-.731h-2.359v2.924H58.04V1.637h4.75l1.158 1.178v2.313l-.736.753.779.862zm-4.479-1.615h2.608l.379-.382V3.262l-.379-.382h-2.608v2.247zm9.508-3.491h1.363l2.251 4.931h.022l2.261-4.931h1.363v7.636h-1.417V4.626h-.022l-1.742 3.578h-.909l-1.731-3.578h-.022v4.647h-1.417V1.637zm12.343 0h1.471v3.196h3.203V1.637h1.471v7.636h-1.471V6.099h-3.203v3.175h-1.471V1.637zm11.125 6.382V2.891l1.244-1.255h3.895l1.244 1.255v5.127l-1.244 1.255h-3.895l-1.244-1.255zm4.36-.011l.552-.556V3.459l-.552-.556h-2.337l-.552.556v3.993l.552.556h2.337zm7.002-6.371h1.472v6.382h3.786v1.255h-5.258V1.637zm9.744 0h5.474v1.255h-4.003v1.931h3.69v1.233h-3.69v1.964h4.003v1.255h-5.474V1.637z"
    fill="#f3f4fc"
  />
  <path
    d="M33.539 21.185v-1.091h1.45v.644l.357.36h2.24l.368-.371v-1.266l-.357-.36h-2.867l-1.169-1.178v-2.018l1.169-1.178h3.419l1.169 1.178v1.102h-1.45v-.655l-.357-.36h-2.142l-.357.36v1.124l.357.36h2.867l1.169 1.178v2.149l-1.19 1.2h-3.506l-1.169-1.178zm10.622-.076v-5.127l1.244-1.255h3.7l1.223 1.233v1.167h-1.472v-.622l-.508-.513h-2.164l-.552.556v3.993l.552.556h2.164l.508-.513v-.622h1.472v1.167l-1.223 1.233h-3.7l-1.244-1.255zm12.944-6.382h1.342l2.77 7.636h-1.493l-.617-1.691h-2.662l-.617 1.691h-1.493l2.77-7.636zm1.677 4.724l-1.006-2.902h-.022l-.974 2.902h2.002zm6.876-4.724h1.32l3.376 5.182h.022v-5.182h1.417v7.636h-1.32l-3.376-5.171h-.022v5.171h-1.417v-7.636z"
    fill="#9295bb"
  />
</svg>
